Icons/Purpur_2.svg

<svg xmlns="http://www.w3.org/2000/svg" xml:space="preserve" fill-rule="evenodd" stroke-linecap="round" stroke-linejoin="round" stroke-miterlimit="1.5" clip-rule="evenodd" viewBox="0 0 24 24"><path fill="none" d="M0 0h24v24H0z"/><path fill="none" stroke="#000" stroke-width="2" d="M12 2.578 8.422 4.367 12 6.155l3.578-1.788L12 2.578ZM18.155 5.5l-3.577 1.789 3.577 1.789 3.578-1.789L18.155 5.5ZM12 8.578l-3.578 1.789L12 12.155l3.578-1.788L12 8.578Z"/><path fill="none" stroke="#000" stroke-width="2" d="M12 12.155v3.578l3.578-1.789v-3.577L12 12.155Zm-3.578 1.789v-3.577L12 12.155v3.578l-3.578-1.789ZM12 18.811v3.578l3.578-1.789v-3.578L12 18.811ZM8.422 20.6v-3.578L12 18.811v3.578L8.422 20.6Zm9.733-11.522v3.577l3.578-1.788V7.289l-3.578 1.789Zm0 6.655v3.578l3.578-1.789v-3.578l-3.578 1.789ZM5.845 5.5l3.577 1.789-3.577 1.789-3.578-1.789L5.845 5.5Zm0 3.578v3.577l-3.578-1.788V7.289l3.578 1.789Zm0 6.655v3.578l-3.578-1.789v-3.578l3.578 1.789Z"/></svg>

<?xml version="1.0" encoding="UTF-8" standalone="no"?>
<!DOCTYPE svg PUBLIC "-//W3C//DTD SVG 1.1//EN" "http://www.w3.org/Graphics/SVG/1.1/DTD/svg11.dtd">
<svg width="100%" height="100%" viewBox="0 0 24 24" version="1.1" xmlns="http://www.w3.org/2000/svg" xmlns:xlink="http://www.w3.org/1999/xlink" xml:space="preserve" xmlns:serif="http://www.serif.com/" style="fill-rule:evenodd;clip-rule:evenodd;stroke-linecap:round;stroke-linejoin:round;stroke-miterlimit:1.5;">
    <rect id="Purpur" x="0" y="0" width="24" height="24" style="fill:none;"/>
    <path d="M12,2.578L8.422,4.367L12,6.155L15.578,4.367L12,2.578Z" style="fill:none;stroke:#000;stroke-width:2px;"/>
    <path d="M18.155,5.5L14.578,7.289L18.155,9.078L21.733,7.289L18.155,5.5Z" style="fill:none;stroke:#000;stroke-width:2px;"/>
    <path d="M12,8.578L8.422,10.367L12,12.155L15.578,10.367L12,8.578Z" style="fill:none;stroke:#000;stroke-width:2px;"/>
    <path d="M12,12.155L12,15.733L15.578,13.944L15.578,10.367L12,12.155Z" style="fill:none;stroke:#000;stroke-width:2px;"/>
    <path d="M8.422,13.944L8.422,10.367L12,12.155L12,15.733L8.422,13.944Z" style="fill:none;stroke:#000;stroke-width:2px;"/>
    <path d="M12,18.811L12,22.389L15.578,20.6L15.578,17.022L12,18.811Z" style="fill:none;stroke:#000;stroke-width:2px;"/>
    <path d="M8.422,20.6L8.422,17.022L12,18.811L12,22.389L8.422,20.6Z" style="fill:none;stroke:#000;stroke-width:2px;"/>
    <path d="M18.155,9.078L18.155,12.655L21.733,10.867L21.733,7.289L18.155,9.078Z" style="fill:none;stroke:#000;stroke-width:2px;"/>
    <path d="M18.155,15.733L18.155,19.311L21.733,17.522L21.733,13.944L18.155,15.733Z" style="fill:none;stroke:#000;stroke-width:2px;"/>
    <path d="M5.845,5.5L9.422,7.289L5.845,9.078L2.267,7.289L5.845,5.5Z" style="fill:none;stroke:#000;stroke-width:2px;"/>
    <path d="M5.845,9.078L5.845,12.655L2.267,10.867L2.267,7.289L5.845,9.078Z" style="fill:none;stroke:#000;stroke-width:2px;"/>
    <path d="M5.845,15.733L5.845,19.311L2.267,17.522L2.267,13.944L5.845,15.733Z" style="fill:none;stroke:#000;stroke-width:2px;"/>
</svg>
